build/img/icon/advantages-2.svg

<svg xmlns="http://www.w3.org/2000/svg" width="512" height="512" fill="none"><g clip-path="url(#clip0)" fill="#2A47B6"><path d="M506.62 315.797v-80.846c0-12.485-10.153-22.641-22.631-22.641h-39.022a7.576 7.576 0 01-7.052-4.736l-14.45-35.656c-.045-.117-.089-.232-.14-.345l-6.13-15.127c-3.209-7.901-10.201-21.157-20.978-21.157h-6.575v-16.874c0-6.958-5.66-12.619-12.619-12.619h-24.965c-6.957 0-12.619 5.661-12.619 12.619v16.874h-8.762v-.36c0-11.049-8.988-20.037-20.037-20.037H83.684a7.514 7.514 0 000 15.028H310.64a5.015 5.015 0 015.01 5.009v35.435a7.514 7.514 0 1015.027 0v-20.047h65.141c1.515.871 4.8 5.249 7.451 11.779l2.029 5.006h-35.854c-7.124 0-12.919 5.796-12.919 12.921v34.411c0 7.124 5.795 12.92 12.919 12.92l114.545-.017c4.192 0 7.604 3.416 7.604 7.614v4.96h-28.771c-6.094 0-11.051 4.958-11.051 11.051v23.723c0 6.094 4.957 11.051 11.051 11.051h28.771v24.463h-72.302c-11.581-4.494-24.594-4.552-36.169 0h-52.446V204.425a7.513 7.513 0 00-7.514-7.513 7.513 7.513 0 00-7.513 7.513V310.2H122.837c-11.566-4.544-24.59-4.487-36.162 0H20.408V134.928a5.015 5.015 0 015.009-5.009H49.62a7.515 7.515 0 000-15.028H25.417c-11.049 0-20.037 8.988-20.037 20.037v180.869c-3.323 3.376-5.38 8-5.38 13.097v16.39c0 10.313 8.39 18.704 18.704 18.704h36.883c2.318 15.142 11.6 28.508 24.97 35.98 14.511 8.11 32.564 8.306 47.291.61 7.396-3.864 13.723-9.618 18.333-16.569 4.072-6.137 6.677-12.951 7.747-20.022h198.123c2.794 18.365 15.994 33.941 33.62 39.737 17.928 5.896 38.141.945 51.297-12.606 7.173-7.388 11.849-16.963 13.412-27.131h42.917c10.314 0 18.704-8.39 18.704-18.704v-16.39c-.001-5.096-2.059-9.721-5.381-13.096zM354.467 120.824h20.147v14.465h-20.147v-14.465zm17.085 61.304h39.836l12.238 30.198h-52.074v-30.198zm95.247 88.581V254.94h24.794v15.769h-24.794zm-113.607 72.942a51.09 51.09 0 00-1.113 5.31H153.891c-1.344-8.668-4.953-16.918-10.483-23.734h219.158a49.6 49.6 0 00-9.374 18.424zm-338.164 1.633v-16.39a3.676 3.676 0 013.676-3.667h47.401c-5.509 6.828-9.193 15.056-10.522 23.734H18.704a3.68 3.68 0 01-3.676-3.677zm118.631 30.419c-8.268 12.462-24.126 18.347-38.524 14.174-13.004-3.769-22.793-15.054-24.718-28.438-1.904-13.248 4.201-26.758 15.459-34.033 12.778-8.257 29.906-7.109 41.475 2.784 11.565 9.888 15.313 26.795 9.006 40.654a35.122 35.122 0 01-2.698 4.859zm301.078-10.202c-3.517 13.125-14.716 23.216-28.154 25.301-12.228 1.897-24.911-3.047-32.583-12.766-9.493-12.026-9.895-29.38-.937-41.816 9.206-12.782 26.394-17.729 41.023-11.929 13.935 5.526 22.905 19.954 21.734 34.905a34.91 34.91 0 01-1.083 6.305zm62.235-20.217a3.681 3.681 0 01-3.676 3.677h-42.915c-1.337-8.673-5.007-16.905-10.513-23.734h53.428a3.676 3.676 0 013.676 3.667v16.39z"/><path d="M177.592 166.89h-19.124c-7.75 0-14.056 6.306-14.056 14.056v25.198h-25.198c-7.751 0-14.057 6.306-14.057 14.057v19.124c0 7.751 6.306 14.056 14.057 14.056h25.198v25.198c0 7.751 6.306 14.056 14.056 14.056h19.124c7.75 0 14.056-6.305 14.056-14.056v-25.198h25.198c7.751 0 14.057-6.305 14.057-14.056v-19.124c0-7.751-6.306-14.057-14.057-14.057h-25.198v-25.198c0-7.75-6.306-14.056-14.056-14.056zm38.283 71.464h-31.741a7.514 7.514 0 00-7.514 7.513v31.741h-17.18v-31.741a7.514 7.514 0 00-7.514-7.513h-31.741v-17.182h31.741a7.514 7.514 0 007.514-7.514v-31.74h17.18v31.74a7.514 7.514 0 007.514 7.514h31.741v17.182zm151.178 15.13a7.513 7.513 0 100-15.027h-17.085a7.513 7.513 0 100 15.027h17.085z"/></g><defs><clipPath id="clip0"><path fill="#fff" d="M0 0h512v512H0z"/></clipPath></defs></svg>

<?xml version="1.0" encoding="UTF-8"?> <svg xmlns="http://www.w3.org/2000/svg" width="512" height="512" viewBox="0 0 512 512" fill="none"> <g clip-path="url(#clip0)"> <path d="M506.62 315.797V234.951C506.62 222.466 496.467 212.31 483.989 212.31H444.967C441.851 212.31 439.082 210.449 437.915 207.574L423.465 171.918C423.42 171.801 423.376 171.686 423.325 171.573L417.195 156.446C413.986 148.545 406.994 135.289 396.217 135.289H389.642V118.415C389.642 111.457 383.982 105.796 377.023 105.796H352.058C345.101 105.796 339.439 111.457 339.439 118.415V135.289H330.677V134.929C330.677 123.88 321.689 114.892 310.64 114.892H83.6836C79.534 114.892 76.1698 118.256 76.1698 122.406C76.1698 126.555 79.534 129.92 83.6836 129.92H310.64C313.402 129.92 315.65 132.167 315.65 134.929V170.364C315.65 174.513 319.013 177.878 323.163 177.878C327.314 177.878 330.677 174.513 330.677 170.364V150.317H395.818C397.333 151.188 400.618 155.566 403.269 162.096L405.298 167.102H369.444C362.32 167.102 356.525 172.898 356.525 180.023V214.434C356.525 221.558 362.32 227.354 369.444 227.354L483.989 227.337C488.181 227.337 491.593 230.753 491.593 234.951V239.911H462.822C456.728 239.911 451.771 244.869 451.771 250.962V274.685C451.771 280.779 456.728 285.736 462.822 285.736H491.593V310.199H419.291C407.71 305.705 394.697 305.647 383.122 310.199H330.676V204.425C330.676 200.276 327.313 196.912 323.162 196.912C319.012 196.912 315.649 200.276 315.649 204.425V310.2H122.837C111.271 305.656 98.2474 305.713 86.6751 310.2H20.4075V134.928C20.4075 132.166 22.6546 129.919 25.4167 129.919H49.6211C53.7707 129.919 57.1349 126.554 57.1349 122.405C57.1349 118.255 53.7707 114.891 49.6211 114.891H25.4167C14.3684 114.891 5.37988 123.879 5.37988 134.928V315.797C2.05678 319.173 0 323.797 0 328.894V345.284C0 355.597 8.3904 363.988 18.7043 363.988H55.5871C57.9053 379.13 67.1864 392.496 80.5579 399.968C95.0685 408.078 113.121 408.274 127.848 400.578C135.244 396.714 141.571 390.96 146.181 384.009C150.253 377.872 152.858 371.058 153.928 363.987H352.051C354.845 382.352 368.045 397.928 385.671 403.724C403.599 409.62 423.812 404.669 436.968 391.118C444.141 383.73 448.817 374.155 450.38 363.987H493.297C503.611 363.987 512.001 355.597 512.001 345.283V328.893C512 323.797 509.942 319.172 506.62 315.797V315.797ZM354.467 120.824H374.614V135.289H354.467V120.824ZM371.552 182.128H411.388L423.626 212.326H371.552V182.128ZM466.799 270.709V254.94H491.593V270.709H466.799ZM353.192 343.651C352.721 345.412 352.357 347.184 352.079 348.961H153.891C152.547 340.293 148.938 332.043 143.408 325.227H362.566C358.236 330.572 355.027 336.807 353.192 343.651ZM15.0276 345.284V328.894C15.0276 326.872 16.6766 325.227 18.7043 325.227H66.1054C60.5962 332.055 56.9125 340.283 55.583 348.961H18.7043C16.6766 348.961 15.0276 347.312 15.0276 345.284V345.284ZM133.659 375.703C125.391 388.165 109.533 394.05 95.1347 389.877C82.1308 386.108 72.3418 374.823 70.4173 361.439C68.5128 348.191 74.618 334.681 85.8757 327.406C98.6541 319.149 115.782 320.297 127.351 330.19C138.916 340.078 142.664 356.985 136.357 370.844C135.589 372.531 134.684 374.158 133.659 375.703ZM434.737 365.501C431.22 378.626 420.021 388.717 406.583 390.802C394.355 392.699 381.672 387.755 374 378.036C364.507 366.01 364.105 348.656 373.063 336.22C382.269 323.438 399.457 318.491 414.086 324.291C428.021 329.817 436.991 344.245 435.82 359.196C435.653 361.325 435.29 363.438 434.737 365.501V365.501ZM496.972 345.284C496.972 347.311 495.323 348.961 493.296 348.961H450.381C449.044 340.288 445.374 332.056 439.868 325.227H493.296C495.322 325.227 496.972 326.872 496.972 328.894V345.284Z" fill="#2A47B6"></path> <path d="M177.592 166.89H158.468C150.718 166.89 144.412 173.196 144.412 180.946V206.144H119.214C111.463 206.144 105.157 212.45 105.157 220.201V239.325C105.157 247.076 111.463 253.381 119.214 253.381H144.412V278.579C144.412 286.33 150.718 292.635 158.468 292.635H177.592C185.342 292.635 191.648 286.33 191.648 278.579V253.381H216.846C224.597 253.381 230.903 247.076 230.903 239.325V220.201C230.903 212.45 224.597 206.144 216.846 206.144H191.648V180.946C191.648 173.196 185.342 166.89 177.592 166.89V166.89ZM215.875 238.354H184.134C179.984 238.354 176.62 241.718 176.62 245.867V277.608H159.44V245.867C159.44 241.718 156.076 238.354 151.926 238.354H120.185V221.172H151.926C156.076 221.172 159.44 217.808 159.44 213.658V181.918H176.62V213.658C176.62 217.808 179.984 221.172 184.134 221.172H215.875V238.354Z" fill="#2A47B6"></path> <path d="M367.053 253.484C371.204 253.484 374.567 250.12 374.567 245.971C374.567 241.821 371.204 238.457 367.053 238.457H349.968C345.817 238.457 342.454 241.821 342.454 245.971C342.454 250.12 345.817 253.484 349.968 253.484H367.053Z" fill="#2A47B6"></path> </g> <defs> <clipPath id="clip0"> <rect width="512" height="512" fill="white"></rect> </clipPath> </defs> </svg>
